icons/3_Generic/Mail.svg

<svg xmlns="http://www.w3.org/2000/svg" width="1024" height="1024" fill="none">
   <g clip-path="url(#a)">
      <path fill="#8C72BD" d="M512 1024c282.77 0 512-229.23 512-512S794.77 0 512 0 0 229.23 0 512s229.23 512 512 512Z"/>
      <path fill="#fff" d="M768 304H256c-8.84 0-16 7.16-16 16v362.67c0 20.62 16.71 37.33 37.33 37.33h469.33c20.62 0 37.33-16.71 37.33-37.33V320c0-8.84-7.16-16-16-16h.01ZM512 532.96 297.12 336h429.76L512 532.96ZM441.79 512 272 667.63V356.38l169.79 155.63V512Zm23.68 21.71 35.87 32.75c6.11 5.59 15.49 5.59 21.6 0l35.73-32.75L726.88 688H297.15l168.32-154.29ZM582.22 512l169.79-155.63v311.25L582.22 511.99v.01Z"/>
   </g>
   <defs>
      <clipPath id="a">
         <path fill="#fff" d="M0 0h1024v1024H0z"/>
      </clipPath>
   </defs>
</svg>

<svg width="1024" height="1024" viewBox="0 0 1024 1024" fill="none" xmlns="http://www.w3.org/2000/svg">
<g clip-path="url(#clip0_3_407)">
<path d="M512 1024C794.77 1024 1024 794.77 1024 512C1024 229.23 794.77 0 512 0C229.23 0 0 229.23 0 512C0 794.77 229.23 1024 512 1024Z" fill="#8C72BD"/>
<path d="M768 304H256C247.16 304 240 311.16 240 320V682.67C240 703.29 256.71 720 277.33 720H746.66C767.28 720 783.99 703.29 783.99 682.67V320C783.99 311.16 776.83 304 767.99 304H768ZM512 532.96L297.12 336H726.88L512 532.96ZM441.79 512L272 667.63V356.38L441.79 512.01V512ZM465.47 533.71L501.34 566.46C507.45 572.05 516.83 572.05 522.94 566.46L558.67 533.71L726.88 688H297.15L465.47 533.71ZM582.22 512L752.01 356.37V667.62L582.22 511.99V512Z" fill="white"/>
</g>
<defs>
<clipPath id="clip0_3_407">
<rect width="1024" height="1024" fill="white"/>
</clipPath>
</defs>
</svg>
